**kern	**kern	**dynam
*part1	*part1	*part1
*staff2	*staff1	*
*I"Piano	*	*
*clefF4	*clefG2	*
*k[]	*k[]	*
=1	=1	=1
!	!LO:TX:b:i:t=cresc.	!
4AA 4D 4A	4c 4d 4f#X	.
4AA 4D 4A	4c 4d 4f#	.
4AA 4D 4A	4c 4d 4f#	.
=	=	=
4BB 4D 4G	4B 4d 4g	>
4C#X	4A 4e 4g	.
4E	4A 4c#X 4g	.
=	=	=
*^	*	*
2ryy	4D	4A 4cn 4g	.
.	4D	4A 4c 4f#X	.
4F#X 4c	4DD	4d	]
=	=	=	=
4G 4B	4GG 4D	2.d	.
4G 4B	4GG 4D	.	.
4G 4B	4GG 4D	.	.
*v	*v	*	*
=	=	=
[2.GG	4a^ 4dd 4ff	pp
.	4f 4a 4dd	.
.	4d 4f 4a	.
=	=	=
*	*^	*
2.GG]	2d 2f	4A<	.
.	.	4Bn<	.
.	4e	4c	.
=	=	=	=
2.GG	2.f#X	4c 4e	fz
.	.	4B 4d	.
.	.	4A 4c	.
*	*v	*v	*
=	=	=
*-	*-	*-
!!!system-decoration: {(s1,s2)}
!!!RDF**kern: < = below
